X:1
T:Test
M:6/8
L:1/8
R:jig
K:G
|:dD DBc|dBG EGB|cEE DGB|dBG D2D|EFc dBG|
ccc e2G|A2B BEG|Bcd cBA|GEE D2B|cEE A2B|dBF DFG|
A/2B/2c/2A/2|F/2F/2A3/2d/2e/2 d/2c/2B/2c/2A/2|B/2G/2B/2d/2g/2d/2 b/2a/2g/2f/2e/2d/2^c/2|
dBG DGB|d/2G/2B/2d/2g/2d/2 b/2a/2g/2f/2e/2d/2|ecA EFA|\
P:./4B
BA|\
cB BcA|G4||
P:V 7
Bc|d3/2B/2d/2B/2 g3/2B/2e/2B/2|d3/2B/2d/2e/2 d/2c/2B/2A/2G/2|
cA/2B/2c/2A/2 a/2g/2f/2e/2d/2^c/2|d3/2B/2d/2e/2 d/2c/2B/2c/2B/2|
cA/2B/2c/2A/2 a3/2a/2g/2f/2e/2|d3/2a/2f/2a/2 cAA:|
